X: 3326
T: Belle Qui Tiens Ma Vie
R: reel
M: 4/4
K: Gminor
G4 G2^F2|G2A2 B4|B2d2 c2B2|B2A2 B4:|
|:B4 A2A2|G2G2 F4|D4=EF G2|G2^F2 G4:|

